archdroid-icon-theme/Archdroid-Shamrock/apps/scalable/libreoffice-base.svg

<svg fill="#00E676" height="48" viewBox="0 0 48 48" width="48" xmlns="http://www.w3.org/2000/svg"><path d="m12 4c-2.21 0-3.980469 1.79-3.980469 4l-.019531 32c0 2.21 1.770469 4 3.980469 4h24.019531c2.21 0 4-1.79 4-4v-24l-12-12zm14 3 11 11h-11zm-9.144531 17h14.289062c.473915 0 .855469.226041.855469.507813v2.984375c0 .281771-.381554.507812-.855469.507812h-14.289062c-.473916 0-.855469-.226041-.855469-.507812v-2.984375c0-.281772.381553-.507813.855469-.507813zm0 5h14.289062c.473915 0 .855469.226041.855469.507813v2.984375c0 .281771-.381554.507812-.855469.507812h-14.289062c-.473916 0-.855469-.226041-.855469-.507812v-2.984375c0-.281772.381553-.507813.855469-.507813zm0 5h14.289062c.473915 0 .855469.226041.855469.507813v2.984375c0 .281771-.381554.507812-.855469.507812h-14.289062c-.473916 0-.855469-.226041-.855469-.507812v-2.984375c0-.281772.381553-.507813.855469-.507813z" fill="#8e03a3"/></svg>

<svg fill="#00E676" height="48" version="1.1" viewBox="0 0 48 48" width="48" xmlns="http://www.w3.org/2000/svg"><path d="M12 4C9.79 4 8.019531 5.79 8.019531 8L8 40C8 42.21 9.770469 44 11.980469 44L36 44C38.21 44 40 42.21 40 40L40 16 28 4 12 4zM26 7L37 18 26 18 26 7zM16.855469 24L31.144531 24C31.618446 24 32 24.226041 32 24.507813L32 27.492188C32 27.773959 31.618446 28 31.144531 28L16.855469 28C16.381553 28 16 27.773959 16 27.492188L16 24.507813C16 24.226041 16.381553 24 16.855469 24zM16.855469 29L31.144531 29C31.618446 29 32 29.226041 32 29.507813L32 32.492188C32 32.773959 31.618446 33 31.144531 33L16.855469 33C16.381553 33 16 32.773959 16 32.492188L16 29.507813C16 29.226041 16.381553 29 16.855469 29zM16.855469 34L31.144531 34C31.618446 34 32 34.226041 32 34.507813L32 37.492188C32 37.773959 31.618446 38 31.144531 38L16.855469 38C16.381553 38 16 37.773959 16 37.492188L16 34.507813C16 34.226041 16.381553 34 16.855469 34z" fill="#8e03a3"/></svg>
